X: 18082
T: Humours Of Ballyconnell, The
R: hornpipe
M: 4/4
K: Amixolydian
|:ed|c2cd cBAB|AGEF GABd|cdcB AGEG|ABcd e2dB|
cdcB cBAB|AEAB cdcB|ABAG EDEG|A2AG A2:|
|:E2|ABcd e2dc|dcdf g2ed|efga bagb|a2ag a2af|
gedB =c3B|AGAB cdcB|ABAG EDEG|A2AG A2:|

